X: 633
T: O'Carolan's Concerto
B: O'Neill's 633
Z: 1999 by John Chambers <jc@eddie.mit.edu> http://eddie.mit.edu/~jc/music/abc/
N: "Animated"
M: 2/4
L: 1/16
K:D
ABc \
| d2dd d2cB | ABGA F2A2 | E2A2 D2A2 | Bcde dcBA |
| d2a2 fgaf | efge fgaf | gabg fdfa | gfed dcBA |
| BdBd gBgB | AdAd fAfA | GBGB efed | {d}c2Bc A3G |
| FGAF EFGE | FGAF GABG | A2d2 fedc | d6 z2 :|
|| d2b2 agfe | d2a2 c2a2 | B2gB ABcd | ecBA d2df |
| edcB caaa | Bggg Afff | edcB caaa | Bggg  bgbg |
| afaf edcB | cABG AFGE | DAFA DAFA | GEBE GEBE |
| FAdc BAGF | EFGA Bcde | A2d2 fedc | d4 d :|


